X:1
T:Mother’s Lamentation [2], A
M:6/8
L:1/8
R:Pipe Air
S:”Received from R.L. Mealy, the well-known piper.”
B:Journal of the Irish Folk Song Society vol. vii (London, 1909, p. 33)
Z:AK/Fiddler’s Companion
K:G
"Slowly"d|(GA>B) {B}(AG>)A|GB>d ~e2 f/a/|{a}(gf>g) ed>B|{c}(BA>G) A2 (B/>A/)|
(GA>B) {B}(AG>)A|GB<d !fermata!e2 f/a/|(gf>g) {f}ed>B|{B}(AGA) !fermata!G2||
B|de(f gfg)|!fermata!age dBd|(gf>g) ed>B|{c}BA>G A2 B/>A/|
(GA>B) {B}(AG>A)|GB>d !fermata!e2 fa|(gf>g) {f}ed>B|{B}(AGA) !fermata!G2||

